small/extra/actions/standard/dialog-ok.svg

<?xml version="1.0" encoding="UTF-8" standalone="no"?>
<svg
   xmlns:dc="http://purl.org/dc/elements/1.1/"
   xmlns:cc="http://creativecommons.org/ns#"
   xmlns:rdf="http://www.w3.org/1999/02/22-rdf-syntax-ns#"
   xmlns:svg="http://www.w3.org/2000/svg"
   xmlns="http://www.w3.org/2000/svg"
   height="100%"
   width="100%"
   version="1.1"
   id="svg2"
   viewBox="0 0 512 512">
  <metadata
     id="metadata508">
    <rdf:RDF>
      <cc:Work
         rdf:about="">
        <dc:format>image/svg+xml</dc:format>
        <dc:type
           rdf:resource="http://purl.org/dc/dcmitype/StillImage" />
        <dc:title />
      </cc:Work>
    </rdf:RDF>
  </metadata>
  <defs
     id="defs506" />
  <path
     style="fill:#0078ad;fill-opacity:1;stroke:none"
     d="m 26,1e-5 c -14.39736,0 -26,11.60265 -26,26 L 0,486 c 0,14.3974 11.60264,26 26,26 l 460,0 c 14.39735,0 26,-11.6026 26,-26 L 512,26.00001 C 512,11.60266 500.39735,9.9999999e-6 486,9.9999999e-6 l -460,0 z"
     id="rect2986" />
  <path
     id="path3577"
     d="m 423.5,68.59376 c -32.9055,9.43586 -59.9144,35.0509 -87.71875,54.96875 -62.14437,50.10641 -115.74858,110.03781 -163.65625,173.6875 -26.16461,-13.80339 -50.73973,-31.29078 -78.09375,-42.375 -35.9022,-7.11492 -50.67496,42.88689 -22.5,61.75 49.77437,56.82263 96.65972,116.31776 151.9375,168.03129 9.14591,9.1026 18.27183,18.2286 27.40625,27.3437 L 486,512 c 14.39735,0 26,-11.6026 26,-26 l 0,-342.34374 C 488.85579,120.61557 465.67978,97.59448 442.46875,74.62501 436.98697,70.68582 430.25255,68.53297 423.5,68.59376 Z"
     style="color:#000000;opacity:0.25;fill:#000000;stroke:none" />
  <path
     style="color:#000000;fill:#ffffff;stroke:none"
     d="m 423.5,68.59376 a 32.29,32.29 0 0 0 -5.1875,0.4375 32.29,32.29 0 0 0 -10.125,3.90625 c -1.77593,1.00052 -3.69283,2.88072 -5.46875,3.90625 -0.30015,0.27514 -0.50611,0.49987 -0.78125,0.75 C 323.79727,123.2923 243.76188,201.70082 172.125,297.25001 l -67.25,-38.3125 a 32.29,32.29 0 0 0 -40.625,49.25 l 107.0625,124.28125 a 32.29,32.29 0 0 0 53.15625,-7.03125 C 277.87124,316.60647 341.80902,218.50463 445.6875,124.53126 A 32.29,32.29 0 0 0 423.5,68.59376 Z"
     id="path158" />
</svg>

<?xml version="1.0" encoding="UTF-8" standalone="no"?>
<svg
   xmlns:dc="http://purl.org/dc/elements/1.1/"
   xmlns:cc="http://creativecommons.org/ns#"
   xmlns:rdf="http://www.w3.org/1999/02/22-rdf-syntax-ns#"
   xmlns:svg="http://www.w3.org/2000/svg"
   xmlns="http://www.w3.org/2000/svg"
   xmlns:sodipodi="http://sodipodi.sourceforge.net/DTD/sodipodi-0.dtd"
   xmlns:inkscape="http://www.inkscape.org/namespaces/inkscape"
   viewBox="0 0 512 512"
   id="svg2"
   version="1.1"
   inkscape:version="0.48.5 r10040"
   width="100%"
   height="100%"
   sodipodi:docname="dialog-ok-apply.svg">
  <sodipodi:namedview
     pagecolor="#ffffff"
     bordercolor="#666666"
     borderopacity="1"
     objecttolerance="10"
     gridtolerance="10"
     guidetolerance="10"
     inkscape:pageopacity="0"
     inkscape:pageshadow="2"
     inkscape:window-width="1306"
     inkscape:window-height="715"
     id="namedview160"
     showgrid="false"
     inkscape:zoom="0.4609375"
     inkscape:cx="180.0678"
     inkscape:cy="128"
     inkscape:window-x="56"
     inkscape:window-y="28"
     inkscape:window-maximized="1"
     inkscape:current-layer="svg2" />
  <metadata
     id="metadata162">
    <rdf:RDF>
      <cc:Work
         rdf:about="">
        <dc:format>image/svg+xml</dc:format>
        <dc:type
           rdf:resource="http://purl.org/dc/dcmitype/StillImage" />
        <dc:title></dc:title>
      </cc:Work>
    </rdf:RDF>
  </metadata>
  <defs
     id="defs4" />
  <path
     id="rect2986"
     d="M 26.000002,0 C 11.602642,0 2.4999999e-6,11.60265 2.4999999e-6,26 l 0,460 C 2.4999999e-6,500.39735 11.602642,512 26.000002,512 L 486,512 c 14.39735,0 26,-11.60265 26,-26 L 512,26 C 512,11.60265 500.39735,0 486,0 L 26.000002,0 z"
     style="fill:#0078ad;fill-opacity:1;stroke:none"
     inkscape:connector-curvature="0" />
  <path
     style="opacity:0.25;color:#000000;fill:#000000;stroke:none"
     d="M 423.5 68.59375 C 390.5945 78.029608 363.5856 103.64465 335.78125 123.5625 C 273.63688 173.66891 220.03267 233.60031 172.125 297.25 C 145.96039 283.44661 121.38527 265.95922 94.03125 254.875 C 58.129055 247.76008 43.356289 297.76189 71.53125 316.625 C 121.30562 373.44763 168.19097 432.94276 223.46875 484.65625 C 232.61466 493.75893 241.74058 502.88489 250.875 512 L 486 512 C 500.39735 512 512 500.39735 512 486 L 512 143.65625 C 488.85579 120.61556 465.67978 97.59447 442.46875 74.625 C 436.98697 70.685813 430.25255 68.53296 423.5 68.59375 z "
     id="path3577" />
  <text
     style="font-size:4848.40771484px;line-height:125%;letter-spacing:0;word-spacing:0;font-family:Gentium Book Basic"
     sodipodi:linespacing="125%"
     id="text32"
     font-size="208.33"
     letter-spacing="0"
     line-height="125%"
     word-spacing="0"
     y="1385.1929"
     x="-27128.092">
    <tspan
       id="tspan34"
       y="1385.1929"
       x="-27128.092" />
  </text>
  <text
     style="font-size:1761.73657227px;text-anchor:middle;font-family:Arial"
     id="text36"
     transform="scale(4.0128206,0.24920128)"
     font-size="75.7"
     y="-7541.4893"
     x="633.94592" />
  <text
     style="font-size:4848.40771484px;line-height:125%;letter-spacing:0;word-spacing:0;font-family:Gentium Book Basic"
     sodipodi:linespacing="125%"
     id="text38"
     font-size="208.33"
     letter-spacing="0"
     line-height="125%"
     word-spacing="0"
     y="2297.2512"
     x="-27262.838">
    <tspan
       id="tspan40"
       y="2297.2512"
       x="-27262.838" />
  </text>
  <text
     style="font-size:1761.73657227px;text-anchor:middle;font-family:Arial"
     id="text42"
     transform="scale(4.0128206,0.24920128)"
     font-size="75.7"
     y="-3881.6387"
     x="600.4101" />
  <text
     transform="scale(1.0508243,0.95163389)"
     x="-12799.019"
     y="-4749.0137"
     word-spacing="0"
     line-height="125%"
     letter-spacing="0"
     font-size="127.88"
     id="text46"
     sodipodi:linespacing="125%"
     style="font-size:2976.10449219px;line-height:125%;letter-spacing:0;word-spacing:0;fill:#555753;font-family:Gentium Book Basic">
    <tspan
       x="-12799.019"
       y="-4749.0137"
       id="tspan48" />
  </text>
  <text
     x="1349.384"
     y="-27098.229"
     font-size="46.47"
     transform="scale(4.2167652,0.23714861)"
     id="text50"
     style="font-size:1081.4901123px;text-anchor:middle;fill:#555753;font-family:Arial" />
  <text
     transform="scale(1.0508243,0.95163389)"
     x="-3396.1755"
     y="-5574.0288"
     word-spacing="0"
     line-height="125%"
     letter-spacing="0"
     font-size="68.46"
     id="text52"
     sodipodi:linespacing="125%"
     style="font-size:1593.24450684px;line-height:125%;letter-spacing:0;word-spacing:0;fill:#555753;font-family:Gentium Book Basic">
    <tspan
       x="-3396.1755"
       y="-5574.0288"
       id="tspan54" />
  </text>
  <text
     x="1583.4858"
     y="-26672.104"
     font-size="24.874"
     transform="scale(4.2167652,0.23714861)"
     id="text56"
     style="font-size:578.88928223px;text-anchor:middle;fill:#555753;font-family:Arial" />
  <text
     x="-39462.637"
     y="-1728.4656"
     word-spacing="0"
     line-height="125%"
     letter-spacing="0"
     font-size="200"
     id="text58"
     sodipodi:linespacing="125%"
     style="font-size:4654.54589844px;line-height:125%;letter-spacing:0;word-spacing:0;fill:#555753;font-family:Gentium Book Basic">
    <tspan
       x="-39462.637"
       y="-1728.4656"
       id="tspan60" />
  </text>
  <text
     x="-2735.4626"
     y="-19511.525"
     font-size="72.67"
     transform="scale(4.0128206,0.24920128)"
     id="text62"
     style="font-size:1691.22058105px;text-anchor:middle;fill:#555753;font-family:Arial" />
  <text
     x="-25279.537"
     y="-13955.027"
     word-spacing="0"
     line-height="125%"
     letter-spacing="0"
     font-size="208.33"
     id="text66"
     sodipodi:linespacing="125%"
     style="font-size:4848.40771484px;line-height:125%;letter-spacing:0;word-spacing:0;fill:#000000;stroke:#cd1d31;stroke-width:23.27272987;font-family:Gentium Book Basic">
    <tspan
       x="-25279.537"
       y="-13955.027"
       id="tspan68"
       style="stroke-width:23.27272987" />
  </text>
  <text
     x="1094.7437"
     y="-69099.18"
     font-size="75.7"
     transform="scale(4.0128206,0.24920128)"
     id="text70"
     style="font-size:1761.73657227px;text-anchor:middle;fill:#000000;stroke:none;font-family:Arial" />
  <text
     x="-25414.52"
     y="-13042.969"
     word-spacing="0"
     line-height="125%"
     letter-spacing="0"
     font-size="208.33"
     id="text72"
     sodipodi:linespacing="125%"
     style="font-size:4848.40771484px;line-height:125%;letter-spacing:0;word-spacing:0;fill:#000000;stroke:#cd1d31;stroke-width:23.27272987;font-family:Gentium Book Basic">
    <tspan
       x="-25414.52"
       y="-13042.969"
       id="tspan74"
       style="stroke-width:23.27272987" />
  </text>
  <text
     x="1061.0681"
     y="-65439.094"
     font-size="75.7"
     transform="scale(4.0128206,0.24920128)"
     id="text76"
     style="font-size:1761.73657227px;text-anchor:middle;fill:#000000;stroke:none;font-family:Arial" />
  <text
     style="font-size:2976.10449219px;line-height:125%;letter-spacing:0;word-spacing:0;fill:#555753;stroke:#cd1d31;stroke-width:23.27263451;font-family:Gentium Book Basic"
     sodipodi:linespacing="125%"
     id="text82"
     font-size="127.88"
     letter-spacing="0"
     line-height="125%"
     word-spacing="0"
     y="-20868.805"
     x="-11039.84"
     transform="scale(1.0508243,0.95163389)">
    <tspan
       id="tspan84"
       y="-20868.805"
       x="-11039.84"
       style="stroke-width:23.27263451" />
  </text>
  <text
     style="font-size:1081.4901123px;text-anchor:middle;fill:#555753;stroke:#cd1d31;stroke-width:23.2728672;font-family:Arial"
     id="text86"
     transform="scale(4.2167652,0.23714861)"
     font-size="46.47"
     y="-91785.164"
     x="1787.8217" />
  <text
     style="font-size:1593.24450684px;line-height:125%;letter-spacing:0;word-spacing:0;fill:#555753;stroke:#cd1d31;stroke-width:23.27263451;font-family:Gentium Book Basic"
     sodipodi:linespacing="125%"
     id="text88"
     font-size="68.46"
     letter-spacing="0"
     line-height="125%"
     word-spacing="0"
     y="-21693.818"
     x="-1637.2299"
     transform="scale(1.0508243,0.95163389)">
    <tspan
       id="tspan90"
       y="-21693.818"
       x="-1637.2299"
       style="stroke-width:23.27263451" />
  </text>
  <text
     style="font-size:578.88928223px;text-anchor:middle;fill:#555753;stroke:#cd1d31;stroke-width:23.2728672;font-family:Arial"
     id="text92"
     transform="scale(4.2167652,0.23714861)"
     font-size="24.874"
     y="-91359.039"
     x="2021.714" />
  <text
     style="font-size:4654.54589844px;line-height:125%;letter-spacing:0;word-spacing:0;fill:#555753;stroke:#cd1d31;stroke-width:23.27272987;font-family:Gentium Book Basic"
     sodipodi:linespacing="125%"
     id="text94"
     font-size="200"
     letter-spacing="0"
     line-height="125%"
     word-spacing="0"
     y="-17068.686"
     x="-37614.082">
    <tspan
       id="tspan96"
       y="-17068.686"
       x="-37614.082"
       style="stroke-width:23.27272987" />
  </text>
  <text
     x="-2274.8977"
     y="-81069.211"
     font-size="72.67"
     transform="scale(4.0128206,0.24920128)"
     id="text98"
     style="font-size:1691.22058105px;text-anchor:middle;fill:#555753;stroke:none;font-family:Arial" />
  <text
     x="-8303.71"
     y="-20644.541"
     word-spacing="0"
     line-height="125%"
     letter-spacing="0"
     font-size="200"
     id="text102"
     sodipodi:linespacing="125%"
     style="font-size:4654.54589844px;line-height:125%;letter-spacing:0;word-spacing:0;fill:#000000;stroke:#cd1d31;stroke-width:23.27272987;font-family:Gentium Book Basic">
    <tspan
       x="-8303.71"
       y="-20644.541"
       id="tspan104"
       style="stroke-width:23.27272987" />
  </text>
  <text
     x="5029.2114"
     y="-95418.398"
     font-size="72.67"
     transform="scale(4.0128206,0.24920128)"
     id="text106"
     style="font-size:1691.22058105px;text-anchor:middle;fill:#000000;stroke:none;font-family:Arial" />
  <text
     x="12632.903"
     y="-23526.17"
     word-spacing="0"
     line-height="125%"
     letter-spacing="0"
     font-size="200"
     id="text108"
     sodipodi:linespacing="125%"
     style="font-size:4654.54589844px;line-height:125%;letter-spacing:0;word-spacing:0;fill:#000000;stroke:#cd1d31;stroke-width:23.27272987;font-family:Gentium Book Basic">
    <tspan
       x="12632.903"
       y="-23526.17"
       id="tspan110"
       style="stroke-width:23.27272987" />
  </text>
  <text
     x="10246.698"
     y="-106981.63"
     font-size="72.67"
     transform="scale(4.0128206,0.24920128)"
     id="text112"
     style="font-size:1691.22058105px;text-anchor:middle;fill:#000000;stroke:none;font-family:Arial" />
  <text
     font-size="200"
     letter-spacing="0"
     line-height="125%"
     word-spacing="0"
     y="-498.8277"
     x="2115.9565"
     id="text118"
     sodipodi:linespacing="125%"
     style="font-size:4654.54589844px;line-height:125%;letter-spacing:0;word-spacing:0;fill:#555753;stroke:#555753;stroke-width:23.27272987;font-family:Gentium Book Basic">
    <tspan
       y="-498.8277"
       x="2115.9565"
       id="tspan120"
       style="stroke-width:23.27272987" />
  </text>
  <text
     transform="scale(4.0128206,0.24920128)"
     font-size="72.67"
     y="-14577.498"
     x="7625.7368"
     id="text122"
     style="font-size:1691.22058105px;text-anchor:middle;fill:#555753;stroke:none;font-family:Arial" />
  <text
     font-size="200"
     letter-spacing="0"
     line-height="125%"
     word-spacing="0"
     y="737.95502"
     x="19462.984"
     id="text124"
     sodipodi:linespacing="125%"
     style="font-size:4654.54589844px;line-height:125%;letter-spacing:0;word-spacing:0;fill:#555753;stroke:#555753;stroke-width:23.27272987;font-family:Gentium Book Basic">
    <tspan
       y="737.95502"
       x="19462.984"
       id="tspan126"
       style="stroke-width:23.27272987" />
  </text>
  <text
     transform="scale(4.0128206,0.24920128)"
     font-size="72.67"
     y="-9614.6143"
     x="11948.623"
     id="text128"
     style="font-size:1691.22058105px;text-anchor:middle;fill:#555753;stroke:none;font-family:Arial" />
  <text
     font-size="200"
     letter-spacing="0"
     line-height="125%"
     word-spacing="0"
     y="-2143.6511"
     x="40399.367"
     id="text130"
     sodipodi:linespacing="125%"
     style="font-size:4654.54589844px;line-height:125%;letter-spacing:0;word-spacing:0;fill:#555753;stroke:#555753;stroke-width:23.27272987;font-family:Gentium Book Basic">
    <tspan
       y="-2143.6511"
       x="40399.367"
       id="tspan132"
       style="stroke-width:23.27272987" />
  </text>
  <text
     transform="scale(4.0128206,0.24920128)"
     font-size="72.67"
     y="-21177.844"
     x="17166.109"
     id="text134"
     style="font-size:1691.22058105px;text-anchor:middle;fill:#555753;stroke:none;font-family:Arial" />
  <text
     font-size="200"
     letter-spacing="0"
     line-height="125%"
     word-spacing="0"
     y="-3368.7278"
     x="20102.053"
     id="text136"
     sodipodi:linespacing="125%"
     style="font-size:4654.54589844px;line-height:125%;letter-spacing:0;word-spacing:0;fill:#555753;stroke:#555753;stroke-width:23.27272987;font-family:Gentium Book Basic">
    <tspan
       y="-3368.7278"
       x="20102.053"
       id="tspan138"
       style="stroke-width:23.27272987" />
  </text>
  <text
     transform="scale(4.0128206,0.24920128)"
     font-size="72.67"
     y="-26093.482"
     x="12108.042"
     id="text140"
     style="font-size:1691.22058105px;text-anchor:middle;fill:#555753;stroke:none;font-family:Arial" />
  <text
     font-size="200"
     letter-spacing="0"
     line-height="125%"
     word-spacing="0"
     y="-6250.1245"
     x="41038.668"
     id="text142"
     sodipodi:linespacing="125%"
     style="font-size:4654.54589844px;line-height:125%;letter-spacing:0;word-spacing:0;fill:#555753;stroke:#555753;stroke-width:23.27272987;font-family:Gentium Book Basic">
    <tspan
       y="-6250.1245"
       x="41038.668"
       id="tspan144"
       style="stroke-width:23.27272987" />
  </text>
  <text
     transform="scale(4.0128206,0.24920128)"
     font-size="72.67"
     y="-37656.711"
     x="17325.295"
     id="text146"
     style="font-size:1691.22058105px;text-anchor:middle;fill:#555753;stroke:none;font-family:Arial" />
  <text
     font-size="200"
     letter-spacing="0"
     line-height="125%"
     word-spacing="0"
     y="7147.9868"
     x="-49948.398"
     id="text148"
     sodipodi:linespacing="125%"
     style="font-size:4654.54589844px;line-height:125%;letter-spacing:0;word-spacing:0;fill:#555753;stroke:#555753;stroke-width:23.27272987;font-family:Gentium Book Basic">
    <tspan
       y="7147.9868"
       x="-49948.398"
       id="tspan150"
       style="stroke-width:23.27272987" />
  </text>
  <text
     transform="scale(4.0128206,0.24920128)"
     font-size="72.67"
     y="16107.439"
     x="-5348.5117"
     id="text152"
     style="font-size:1691.22058105px;text-anchor:middle;fill:#555753;stroke:none;font-family:Arial" />
  <path
     id="path158"
     d="m 423.5,68.59375 a 32.29,32.29 0 0 0 -5.1875,0.4375 32.29,32.29 0 0 0 -10.125,3.90625 c -1.77593,1.000516 -3.69283,2.880722 -5.46875,3.90625 -0.30015,0.275142 -0.50611,0.499872 -0.78125,0.75 C 323.79727,123.29229 243.76188,201.70081 172.125,297.25 l -67.25,-38.3125 a 32.29,32.29 0 0 0 -40.625,49.25 l 107.0625,124.28125 a 32.29,32.29 0 0 0 53.15625,-7.03125 C 277.87124,316.60646 341.80902,218.50462 445.6875,124.53125 A 32.29,32.29 0 0 0 423.5,68.59375 z"
     style="color:#000000;fill:#ffffff;stroke:none"
     inkscape:connector-curvature="0" />
</svg>
